src/resources/flags/mm.svg

<svg height="336" viewBox="0 0 512 336" width="512" xmlns="http://www.w3.org/2000/svg"><g fill="none"><path d="m0 223.908h512v102.988a8.829 8.829 0 0 1 -8.828 8.828h-494.344a8.829 8.829 0 0 1 -8.828-8.828z" fill="#ff4b55"/><path d="m8.828.276h494.345a8.829 8.829 0 0 1 8.828 8.828v102.988h-512.001v-102.989a8.828 8.828 0 0 1 8.828-8.827z" fill="#ffe15a"/><path d="m0 112.088h512v111.812h-512z" fill="#73af00"/><path d="m261.032 56.959 26.435 79.263 83.552.648c5.097.04 7.21 6.543 3.111 9.571l-67.214 49.635 25.203 79.663c1.537 4.86-3.996 8.879-8.142 5.916l-67.977-48.587-67.976 48.587c-4.147 2.964-9.679-1.056-8.142-5.916l25.203-79.663-67.214-49.635c-4.1-3.028-1.987-9.533 3.111-9.571l83.552-.648 26.435-79.263c1.611-4.835 8.451-4.835 10.063 0z" fill="#f5f5f5"/></g></svg>

<svg width="512" height="336" viewBox="0 0 512 336" xmlns="http://www.w3.org/2000/svg">
  <g fill="none">
    <path d="M0 223.908h512v102.988a8.829 8.829 0 0 1-8.828 8.828H8.828A8.829 8.829 0 0 1 0 326.896V223.908z" fill="#FF4B55"/>
    <path d="M8.828.276h494.345a8.829 8.829 0 0 1 8.828 8.828v102.988H0V9.103A8.828 8.828 0 0 1 8.828.276z" fill="#FFE15A"/>
    <path fill="#73AF00" d="M0 112.088h512V223.9H0z"/>
    <path d="M261.032 56.959l26.435 79.263 83.552.648c5.097.04 7.21 6.543 3.111 9.571l-67.214 49.635 25.203 79.663c1.537 4.86-3.996 8.879-8.142 5.916L256 233.068l-67.976 48.587c-4.147 2.964-9.679-1.056-8.142-5.916l25.203-79.663-67.214-49.635c-4.1-3.028-1.987-9.533 3.111-9.571l83.552-.648 26.435-79.263c1.611-4.835 8.451-4.835 10.063 0z" fill="#F5F5F5"/>
  </g>
</svg>
